X: 1160
T: Up and Down Again.
C:F. O'Neill.
B:O'Neill's Music of Ireland
N:O'Neill's - 1160
Z:Transcribed by Stephen Foy (shf@access.digex.net)
Z:abc 1.6
M:9/8
R:slipjig
K:G
GAB EFE EFE|GAB EFE AFD|GAB EFE EFE|FED AdB AFD:|
|:GAB BdB BdB|GAB BdB AFD|GAB BdB BdB|cBA AdB AFD:|


